usr/share/icons/biglinux-icons-material/scalable/apps/discord.svg

<?xml version="1.0" encoding="UTF-8" standalone="no"?>
<svg
   width="24"
   height="24"
   viewBox="0 0 24 24"
   fill="none"
   version="1.1"
   id="svg154"
   sodipodi:docname="discord.svg"
   inkscape:version="1.2.2 (b0a8486541, 2022-12-01)"
   xml:space="preserve"
   xmlns:inkscape="http://www.inkscape.org/namespaces/inkscape"
   xmlns:sodipodi="http://sodipodi.sourceforge.net/DTD/sodipodi-0.dtd"
   xmlns:xlink="http://www.w3.org/1999/xlink"
   xmlns="http://www.w3.org/2000/svg"
   xmlns:svg="http://www.w3.org/2000/svg"
   xmlns:sketch="http://www.bohemiancoding.com/sketch/ns"><sodipodi:namedview
     id="namedview156"
     pagecolor="#ffffff"
     bordercolor="#000000"
     borderopacity="1"
     inkscape:showpageshadow="0"
     inkscape:pageopacity="1"
     inkscape:pagecheckerboard="false"
     inkscape:deskcolor="#ffffff"
     showgrid="true"
     inkscape:zoom="22.627417"
     inkscape:cx="7.1373591"
     inkscape:cy="11.335806"
     inkscape:window-width="1920"
     inkscape:window-height="1052"
     inkscape:window-x="0"
     inkscape:window-y="0"
     inkscape:window-maximized="1"
     inkscape:current-layer="svg154"
     showguides="true"
     guidecolor="#ff0000"
     guideopacity="1"
     inkscape:lockguides="true"
     showborder="true"
     borderlayer="true"><inkscape:grid
       type="xygrid"
       id="grid356"
       color="#000000"
       opacity="0.10196078"
       empcolor="#000000"
       empopacity="0.10196078"
       snapvisiblegridlinesonly="true"
       enabled="true"
       visible="true"
       dotted="false" /><sodipodi:guide
       position="4.003125,23.042969"
       orientation="1,0"
       id="guide764"
       inkscape:locked="true" /><sodipodi:guide
       position="5.0007813,21.049219"
       orientation="1,0"
       id="guide2218"
       inkscape:locked="true" /><sodipodi:guide
       position="3.6445312,20"
       orientation="0,-1"
       id="guide2220"
       inkscape:locked="true" /><sodipodi:guide
       position="3.796875,5"
       orientation="0,-1"
       id="guide2222"
       inkscape:locked="true" /><sodipodi:guide
       position="3.625,4"
       orientation="0,-1"
       id="guide2224"
       inkscape:locked="true" /><sodipodi:guide
       position="19,4.8984375"
       orientation="1,0"
       id="guide2226"
       inkscape:locked="true" /><sodipodi:guide
       position="20,3.3312502"
       orientation="1,0"
       id="guide2228"
       inkscape:locked="true" /><sodipodi:guide
       position="22.875,19"
       orientation="0,-1"
       id="guide2230"
       inkscape:locked="true" /></sodipodi:namedview><defs
     id="defs152"><radialGradient
       id="radialGradient1281"
       cx="0"
       cy="0"
       r="1"
       gradientUnits="userSpaceOnUse"
       gradientTransform="translate(12 1) rotate(90) scale(22)"><stop
         stop-color="#8FC8FF"
         id="stop1277"
         offset="0.00424011"
         style="stop-color:#ffffff;stop-opacity:1;" /><stop
         offset="0.99151897"
         stop-color="#0056A8"
         id="stop1279"
         style="stop-color:#ffffff;stop-opacity:1;" /></radialGradient><radialGradient
       id="paint0_radial_29_23"
       cx="0"
       cy="0"
       r="1"
       gradientUnits="userSpaceOnUse"
       gradientTransform="translate(12 1) rotate(90) scale(22)"><stop
         stop-color="#8FC8FF"
         id="stop147"
         offset="0"
         style="stop-color:#f6f6f6;stop-opacity:1;" /><stop
         offset="1"
         stop-color="#0056A8"
         id="stop149"
         style="stop-color:#cfcfcf;stop-opacity:1;" /></radialGradient><radialGradient
       id="paint0_radial_10_2"
       cx="0"
       cy="0"
       r="1"
       gradientUnits="userSpaceOnUse"
       gradientTransform="matrix(-10.999959,21.999967,-21.999967,-10.999959,17.5,1)"
       xlink:href="#paint0_radial_29_23"><stop
         stop-color="#777777"
         id="stop2847" /><stop
         offset="1"
         stop-color="#222222"
         id="stop2849" /></radialGradient><linearGradient
       x1="12"
       y1="1"
       x2="12"
       y2="23"
       gradientUnits="userSpaceOnUse"
       gradientTransform="matrix(0.75,0,0,0.75,-7.98374e-6,2.65834e-5)"
       spreadMethod="pad"
       id="linearGradient44915"><stop
         style="stop-opacity:1;stop-color:#ff5f5f"
         offset="0"
         id="stop44911" /><stop
         style="stop-opacity:1;stop-color:#e82e34"
         offset="1"
         id="stop44913" /></linearGradient><radialGradient
       id="SVGID_1_"
       cx="85.226997"
       cy="71.662003"
       r="47.776001"
       gradientTransform="matrix(1,0,0,-1,0,103.8)"
       gradientUnits="userSpaceOnUse"><stop
         offset="0"
         stop-color="#00aeff"
         id="stop12" /><stop
         offset=".131"
         stop-color="#00a5f7"
         id="stop14" /><stop
         offset=".345"
         stop-color="#008de0"
         id="stop16" /><stop
         offset=".616"
         stop-color="#0065ba"
         id="stop18" /><stop
         offset=".928"
         stop-color="#002f87"
         id="stop20" /><stop
         offset="1"
         stop-color="#00217a"
         id="stop22" /></radialGradient><linearGradient
       id="SVGID_3_"
       gradientUnits="userSpaceOnUse"
       x1="92.800003"
       y1="72.949997"
       x2="130.763"
       y2="72.949997"
       gradientTransform="matrix(1,0,0,-1,0,103.8)"><stop
         offset="0"
         stop-color="#FFF"
         id="stop29" /><stop
         offset="1"
         stop-color="#FFF"
         stop-opacity="0"
         id="stop31" /></linearGradient><radialGradient
       id="SVGID_4_"
       cx="83.728996"
       cy="73.999001"
       r="8.2860003"
       gradientTransform="matrix(1,0,0,-1,0,103.8)"
       gradientUnits="userSpaceOnUse"><stop
         offset="0"
         stop-color="#FFF"
         id="stop36" /><stop
         offset=".679"
         stop-color="#7a7a7a"
         id="stop38" /><stop
         offset="1"
         stop-color="#404040"
         id="stop40" /></radialGradient><radialGradient
       fx="0"
       fy="0"
       cx="0"
       cy="0"
       r="1"
       gradientUnits="userSpaceOnUse"
       gradientTransform="matrix(0,16.5,-16.5,0,8.999996,0.750012)"
       spreadMethod="pad"
       id="radialGradient3666-6"><stop
         style="stop-color:#ffffff;stop-opacity:1;"
         offset="0"
         id="stop3662-7" /><stop
         style="stop-color:#f7da4d;stop-opacity:1;"
         offset="1"
         id="stop3664-5" /></radialGradient><clipPath
       id="a"><path
         d="M 0,0.113 H 91.887 V 92 H 0 Z m 0,0"
         id="path76179" /></clipPath><clipPath
       id="a-3"><path
         d="M 0,0.113 H 91.887 V 92 H 0 Z m 0,0"
         id="path76179-5" /></clipPath><radialGradient
       fx="0"
       fy="0"
       cx="0"
       cy="0"
       r="1"
       gradientUnits="userSpaceOnUse"
       gradientTransform="matrix(0,16.5,-16.5,0,8.999996,0.750012)"
       spreadMethod="pad"
       id="radialGradient3666-6-2"><stop
         style="stop-color:#ffffff;stop-opacity:1;"
         offset="0"
         id="stop3662-7-9" /><stop
         style="stop-color:#3dc89a;stop-opacity:1;"
         offset="1"
         id="stop3664-5-1" /></radialGradient><linearGradient
       id="paint0_linear_3_169"
       x1="12"
       y1="1"
       x2="12"
       y2="12"
       gradientUnits="userSpaceOnUse"><stop
         stop-color="#AAA2FF"
         id="stop132364" /><stop
         offset="1"
         stop-color="#7164EE"
         id="stop132366" /></linearGradient><linearGradient
       id="paint0_linear_3_169-2"
       x1="12"
       y1="1"
       x2="12"
       y2="12"
       gradientUnits="userSpaceOnUse"><stop
         stop-color="#AAA2FF"
         id="stop133305" /><stop
         offset="1"
         stop-color="#7164EE"
         id="stop133307" /></linearGradient></defs><path
     d="M 50,5 C 9.0909092,5 5,25.454546 5,50 5,82.727274 17.272728,95 50,95 82.727274,95 95,82.727274 95,50 95,25.454546 90.909093,5 50,5 Z"
     sketch:type="MSShapeGroup"
     id="path6"
     style="font-variation-settings:normal;display:inline;opacity:1;vector-effect:none;fill:#5864f2;fill-opacity:1;stroke-width:4.56656;stroke-linecap:butt;stroke-linejoin:miter;stroke-miterlimit:4;stroke-dasharray:none;stroke-dashoffset:0;stroke-opacity:1;-inkscape-stroke:none;stop-color:#000000;stop-opacity:1"
     sodipodi:nodetypes="sssss"
     inkscape:label="Shape"
     transform="matrix(0.24444444,0,0,0.24444444,-0.22222222,-0.22222222)"
     sodipodi:insensitive="true" /><g
     inkscape:groupmode="layer"
     id="layer4"
     inkscape:label="Colors References"
     style="display:inline"
     sodipodi:insensitive="true"
     inkscape:highlight-color="#cc5ecc"><rect
       style="display:inline;fill:#3947be;fill-opacity:1;stroke-width:22.6872;paint-order:markers stroke fill"
       id="rect7816"
       width="1.9999923"
       height="2"
       x="12"
       y="-2.9999964"
       rx="0"
       ry="0"
       inkscape:label="Dark Blue" /><rect
       style="display:inline;fill:#6c7ad8;fill-opacity:1;stroke-width:22.6873;paint-order:markers stroke fill"
       id="rect7820"
       width="2"
       height="2.0000076"
       x="9"
       y="-3.0000041"
       rx="0"
       ry="0"
       inkscape:label="Blue" /><rect
       style="display:inline;fill:#33cc33;fill-opacity:1;stroke-width:22.6873;paint-order:markers stroke fill"
       id="rect7814"
       width="2"
       height="2.0000076"
       x="6"
       y="-3.0000041"
       rx="0"
       ry="0"
       inkscape:label="Green" /><rect
       style="display:inline;fill:#ffc328;fill-opacity:1;stroke-width:22.6872;paint-order:markers stroke fill"
       id="rect7824"
       width="1.9999926"
       height="2.0000002"
       x="3"
       y="-2.9999964"
       rx="0"
       ry="0"
       inkscape:label="Yellow" /><rect
       style="display:inline;fill:#cc5e55;fill-opacity:1;stroke-width:22.6873;paint-order:markers stroke fill"
       id="rect7822"
       width="2"
       height="2.0000076"
       x="0"
       y="-3.0000038"
       rx="0"
       ry="0"
       inkscape:label="Red" /><rect
       style="display:inline;fill:#0bb1cb;fill-opacity:1;stroke-width:22.6872;paint-order:markers stroke fill"
       id="rect3087"
       width="1.9999919"
       height="1.9999996"
       x="-3"
       y="12.000004"
       rx="0"
       ry="0"
       inkscape:label="Blue 4" /><rect
       style="display:inline;fill:#2a92c9;fill-opacity:1;stroke-width:22.6873;paint-order:markers stroke fill"
       id="rect3085"
       width="2"
       height="2.0000079"
       x="-3"
       y="8.9999962"
       rx="0"
       ry="0"
       inkscape:label="Blue 3" /><rect
       style="display:inline;fill:#006699;fill-opacity:1;stroke-width:22.6873;paint-order:markers stroke fill"
       id="rect3089"
       width="2"
       height="2.0000076"
       x="-3"
       y="6.0000038"
       rx="0"
       ry="0"
       inkscape:label="Blue 2" /><rect
       style="display:inline;fill:#002a44;fill-opacity:1;stroke-width:22.6873;paint-order:markers stroke fill"
       id="rect3083"
       width="2"
       height="2.0000076"
       x="-3"
       y="2.9999962"
       rx="0"
       ry="0"
       inkscape:label="Blue 1" /><rect
       style="display:inline;fill:#2c2d3d;fill-opacity:1;stroke-width:22.6873;paint-order:markers stroke fill"
       id="rect3456"
       width="2"
       height="2.0000076"
       x="-3"
       y="-3.8146973e-06"
       rx="0"
       ry="0"
       inkscape:label="Gray" /><rect
       style="display:inline;fill:#16171c;fill-opacity:1;stroke-width:22.6872;paint-order:markers stroke fill"
       id="rect3091"
       width="1.9999924"
       height="2"
       x="-3"
       y="-3"
       rx="0"
       ry="0"
       inkscape:label="Black" /></g><g
     id="g133435"
     transform="matrix(0.76359401,0,0,0.76359401,2.836874,3.0554994)"><path
       d="m 18.3616,5.85327 c -4e-4,0 -9e-4,-9e-5 -0.0012,-2.7e-4 C 17.3193,5.36661 16.2261,5.00227 15.1026,4.76682 14.7901,4.70134 14.4732,4.85423 14.3343,5.14168 v 0 C 14.1856,5.44932 13.8586,5.63309 13.519,5.5957 12.5098,5.48458 11.4915,5.48447 10.4823,5.59537 10.1406,5.63293 9.81139,5.44896 9.6596,5.14049 v 0 C 9.51819,4.85311 9.19978,4.70137 8.88633,4.76723 7.92025,4.97022 6.98672,5.2666 6.09698,5.64686 5.78701,5.77934 5.52615,6.00574 5.34769,6.29172 3.36098,9.47536 2.70495,12.5926 2.85351,15.6658 c 0.02505,0.5182 0.29212,0.9947 0.72261,1.2842 1.10589,0.7437 2.18962,1.2736 3.25795,1.664 0.424,0.1549 0.89817,-0.0012 1.13964,-0.3826 0.0755,-0.1193 0.1489,-0.24 0.22016,-0.3622 0.19935,-0.3419 0.02955,-0.7706 -0.3286,-0.939 C 7.6654,16.8362 7.46873,16.7354 7.27562,16.6281 7.13362,16.5492 7.12425,16.351 7.25018,16.2483 v 0 c 0.06941,-0.0565 0.16534,-0.0699 0.2469,-0.0329 2.93422,1.3295 6.10532,1.3296 9.00702,4e-4 0.0812,-0.0372 0.1776,-0.0241 0.2469,0.0323 v 0 c 0.1262,0.1027 0.1159,0.3013 -0.0262,0.3804 -0.1931,0.1076 -0.3898,0.2085 -0.5898,0.3027 -0.3589,0.169 -0.529,0.5992 -0.3293,0.9421 0.0713,0.1225 0.1448,0.2435 0.2205,0.363 0.2403,0.3795 0.7118,0.5342 1.1338,0.3804 1.1546,-0.421 2.2535,-0.9813 3.2721,-1.6687 0.4266,-0.2878 0.6898,-0.7613 0.7146,-1.2753 C 21.3251,11.9792 20.3004,8.74451 18.364,5.85454 18.3634,5.85375 18.3625,5.85327 18.3616,5.85327 Z M 8.95257,14.3403 c 0,6e-4 -4.9e-4,0.0011 -0.00109,0.0011 -0.90461,-7e-4 -1.64673,-0.8471 -1.64673,-1.8752 0,-1.0307 0.72539,-1.8774 1.64565,-1.8774 0.92244,0 1.6673,0.8445 1.65,1.8774 0,1.0281 -0.72699,1.8723 -1.64674,1.873 -6e-4,0 -0.00109,5e-4 -0.00109,0.0011 z m 6.09103,0 c 0,6e-4 -4e-4,0.0011 -10e-4,0.0011 -0.9068,-7e-4 -1.6468,-0.8471 -1.6468,-1.8752 0,-1.0307 0.7254,-1.8774 1.6457,-1.8774 0.9224,0 1.6673,0.8445 1.65,1.8774 0,1.0281 -0.727,1.8723 -1.6468,1.873 -6e-4,0 -0.0011,5e-4 -0.0011,0.0011 z"
       fill="#ffffff"
       id="path133303" /></g></svg>

<svg width="24" height="24" viewBox="0 0 24 24" fill="none" xmlns="http://www.w3.org/2000/svg">
<path fill-rule="evenodd" clip-rule="evenodd" d="M9.59604 1.11359C9.71588 1.11486 9.83043 1.0996 9.93969 1.06779C11.3755 0.973736 12.8111 0.977551 14.2467 1.07924C15.5484 1.18066 16.8085 1.46308 18.0269 1.9265C20.0525 2.76044 21.4386 4.2069 22.185 6.26586C22.6119 7.50549 22.8639 8.78021 22.9411 10.09C23.0478 11.7347 23.0096 13.3758 22.8265 15.0133C22.6895 16.1642 22.3916 17.271 21.933 18.3336C21.0824 20.1761 19.704 21.447 17.7978 22.1463C16.2531 22.6682 14.6647 22.943 13.0325 22.9706C11.1966 23.0661 9.37913 22.9287 7.57997 22.5585C4.26839 21.8208 2.22559 19.8018 1.45158 16.5017C1.12311 15.0161 0.974199 13.5124 1.00483 11.9906C0.968176 10.3724 1.14 8.77709 1.52031 7.20471C2.33171 4.11908 4.2905 2.20701 7.39669 1.46852C8.12048 1.29157 8.8536 1.17326 9.59604 1.11359Z" fill="url(#paint0_linear_3_169)"/>
<path d="M18.3616 5.85327C18.3612 5.85327 18.3607 5.85318 18.3604 5.853C17.3193 5.36661 16.2261 5.00227 15.1026 4.76682C14.7901 4.70134 14.4732 4.85423 14.3343 5.14168V5.14168C14.1856 5.44932 13.8586 5.63309 13.519 5.5957C12.5098 5.48458 11.4915 5.48447 10.4823 5.59537C10.1406 5.63293 9.81139 5.44896 9.6596 5.14049V5.14049C9.51819 4.85311 9.19978 4.70137 8.88633 4.76723C7.92025 4.97022 6.98672 5.2666 6.09698 5.64686C5.78701 5.77934 5.52615 6.00574 5.34769 6.29172C3.36098 9.47536 2.70495 12.5926 2.85351 15.6658C2.87856 16.184 3.14563 16.6605 3.57612 16.95C4.68201 17.6937 5.76574 18.2236 6.83407 18.614C7.25807 18.7689 7.73224 18.6128 7.97371 18.2314C8.04921 18.1121 8.12261 17.9914 8.19387 17.8692C8.39322 17.5273 8.22342 17.0986 7.86527 16.9302C7.6654 16.8362 7.46873 16.7354 7.27562 16.6281C7.13362 16.5492 7.12425 16.351 7.25018 16.2483V16.2483C7.31959 16.1918 7.41552 16.1784 7.49708 16.2154C10.4313 17.5449 13.6024 17.545 16.5041 16.2158C16.5853 16.1786 16.6817 16.1917 16.751 16.2481V16.2481C16.8772 16.3508 16.8669 16.5494 16.7248 16.6285C16.5317 16.7361 16.335 16.837 16.135 16.9312C15.7761 17.1002 15.606 17.5304 15.8057 17.8733C15.877 17.9958 15.9505 18.1168 16.0262 18.2363C16.2665 18.6158 16.738 18.7705 17.16 18.6167C18.3146 18.1957 19.4135 17.6354 20.4321 16.948C20.8587 16.6602 21.1219 16.1867 21.1467 15.6727C21.3251 11.9792 20.3004 8.74451 18.364 5.85454C18.3634 5.85375 18.3625 5.85327 18.3616 5.85327V5.85327ZM8.95257 14.3403C8.95257 14.3409 8.95208 14.3414 8.95148 14.3414C8.04687 14.3407 7.30475 13.4943 7.30475 12.4662C7.30475 11.4355 8.03014 10.5888 8.9504 10.5888C9.87284 10.5888 10.6177 11.4333 10.6004 12.4662C10.6004 13.4943 9.87341 14.3385 8.95366 14.3392C8.95306 14.3392 8.95257 14.3397 8.95257 14.3403V14.3403ZM15.0436 14.3403C15.0436 14.3409 15.0432 14.3414 15.0426 14.3414C14.1358 14.3407 13.3958 13.4943 13.3958 12.4662C13.3958 11.4355 14.1212 10.5888 15.0415 10.5888C15.9639 10.5888 16.7088 11.4333 16.6915 12.4662C16.6915 13.4943 15.9645 14.3385 15.0447 14.3392C15.0441 14.3392 15.0436 14.3397 15.0436 14.3403V14.3403Z" fill="white"/>
<defs>
<linearGradient id="paint0_linear_3_169" x1="12" y1="1" x2="12" y2="12" gradientUnits="userSpaceOnUse">
<stop stop-color="#AAA2FF"/>
<stop offset="1" stop-color="#7164EE"/>
</linearGradient>
</defs>
</svg>
